packages/core/src/svgs/tokens/branded/ZEN.svg

<svg width="24" height="24" viewBox="0 0 24 24" fill="none" xmlns="http://www.w3.org/2000/svg">
<path d="M20.1367 6.17119L18.5011 8.7056C19.0168 9.72771 19.2846 10.8569 19.2827 12.0017C19.2808 13.1465 19.0095 14.2749 18.4905 15.2954C17.9716 16.3158 17.2197 17.1997 16.2957 17.8757C15.3715 18.5515 14.3014 19.0004 13.1716 19.1857C11.6597 19.4332 10.1128 19.1857 8.74221 18.4982L6.20093 20.1326C7.63827 21.1619 9.32313 21.7912 11.0834 21.956C12.8436 22.1208 14.6161 21.8153 16.2194 21.0705C17.8229 20.3259 19.1998 19.1688 20.2095 17.7174C21.2191 16.2662 21.8253 14.5729 21.9662 12.8107C22.1604 10.4489 21.5124 8.09458 20.1367 6.16493H20.143L20.1367 6.17119Z" fill="url(#paint0_radial_364_9099)"/>
<path d="M12.013 17.0101C13.1883 17.011 14.3267 16.5994 15.2297 15.8471C16.1327 15.0947 16.743 14.0494 16.9543 12.8932C15.3884 12.5537 13.7687 12.5468 12.1999 12.8731C10.6313 13.1993 9.14864 13.8513 7.8479 14.7869C8.30712 15.4701 8.92707 16.0301 9.65323 16.4177C10.3795 16.8054 11.1897 17.0088 12.013 17.0101Z" fill="url(#paint1_radial_364_9099)"/>
<path d="M14.4901 11.7224C15.3489 11.7224 16.1964 11.8169 17.037 11.9993C17.0368 10.9766 16.7246 9.97807 16.1421 9.13733C15.5597 8.2966 14.7347 7.65348 13.7771 7.29387C12.8197 6.93424 11.7752 6.87522 10.7833 7.12465C9.79143 7.37411 8.89914 7.92016 8.22564 8.68994C7.75395 9.23066 7.40374 9.86621 7.19867 10.5537C6.99358 11.2413 6.93842 11.9649 7.03688 12.6756C6.34266 13.1859 5.71081 13.7759 5.15435 14.4338C4.79698 13.4115 4.67185 12.3224 4.78808 11.2455C4.9043 10.1688 5.25895 9.1315 5.82625 8.20893C6.39355 7.28639 7.15925 6.50182 8.06771 5.91225C8.97618 5.32267 10.0046 4.9429 11.0781 4.8005C12.5132 4.613 13.9719 4.85926 15.2664 5.50677L17.7958 3.86549C16.3507 2.83127 14.6558 2.20151 12.8859 2.04123C11.1161 1.88092 9.33555 2.19591 7.72818 2.95364C6.12077 3.71139 4.74474 4.88442 3.74215 6.35165C2.73956 7.81887 2.14675 9.52715 2.02494 11.2999C1.85677 13.6769 2.54324 16.0358 3.96058 17.9513C4.43176 17.0992 5.00448 16.3075 5.66623 15.5932C6.21062 15.0297 6.80077 14.5122 7.43063 14.0463C9.47847 12.54 11.9536 11.7263 14.4958 11.7237L14.4901 11.7224Z" fill="white"/>
<defs>
<radialGradient id="paint0_radial_364_9099" cx="0" cy="0" r="1" gradientUnits="userSpaceOnUse" gradientTransform="translate(19.6484 1.99344) scale(21.2926 21.2707)">
<stop offset="0.1" stop-color="#26DB8D"/>
<stop offset="0.26" stop-color="#23D29A"/>
<stop offset="0.56" stop-color="#1ABBBB"/>
<stop offset="0.89" stop-color="#0E9DE5"/>
</radialGradient>
<radialGradient id="paint1_radial_364_9099" cx="0" cy="0" r="1" gradientUnits="userSpaceOnUse" gradientTransform="translate(29.0021 -27.5817) scale(36.9411 76.9549)">
<stop offset="0.26" stop-color="#23D29A"/>
<stop offset="0.56" stop-color="#1ABBBB"/>
<stop offset="0.89" stop-color="#0E9DE5"/>
</radialGradient>
</defs>
</svg>

<svg xmlns="http://www.w3.org/2000/svg" width="24" height="24" fill="none" viewBox="0 0 24 24">
    <path fill="url(#ZEN__a)" d="M20.137 6.171 18.5 8.706a7.29 7.29 0 0 1-5.33 10.48 7.26 7.26 0 0 1-4.429-.688L6.2 20.133a9.984 9.984 0 0 0 15.765-7.322 10.03 10.03 0 0 0-1.83-6.646h.007z"/>
    <path fill="url(#ZEN__b)" d="M12.013 17.01a5.02 5.02 0 0 0 4.941-4.117 11.44 11.44 0 0 0-9.106 1.894 5.03 5.03 0 0 0 4.165 2.223"/>
    <path fill="#fff" d="M14.49 11.722c.859 0 1.706.095 2.547.277a5.027 5.027 0 0 0-8.811-3.31 5.02 5.02 0 0 0-1.19 3.987c-.693.51-1.325 1.1-1.882 1.758A7.29 7.29 0 0 1 11.078 4.8a7.26 7.26 0 0 1 4.188.706l2.53-1.642A9.983 9.983 0 0 0 2.025 11.3a10 10 0 0 0 1.935 6.65 12 12 0 0 1 1.705-2.358 14 14 0 0 1 1.765-1.547 11.95 11.95 0 0 1 7.065-2.322z"/>
    <defs>
        <radialGradient id="ZEN__a" cx="0" cy="0" r="1" gradientTransform="matrix(21.2926 0 0 21.2707 19.648 1.993)" gradientUnits="userSpaceOnUse">
            <stop offset=".1" stop-color="#26DB8D"/>
            <stop offset=".26" stop-color="#23D29A"/>
            <stop offset=".56" stop-color="#1ABBBB"/>
            <stop offset=".89" stop-color="#0E9DE5"/>
        </radialGradient>
        <radialGradient id="ZEN__b" cx="0" cy="0" r="1" gradientTransform="matrix(36.9411 0 0 76.9549 29.002 -27.582)" gradientUnits="userSpaceOnUse">
            <stop offset=".26" stop-color="#23D29A"/>
            <stop offset=".56" stop-color="#1ABBBB"/>
            <stop offset=".89" stop-color="#0E9DE5"/>
        </radialGradient>
    </defs>
</svg>
